X:1
T:Perder gl'amici
T:Giovanni Animucccia (?)
T:Source : Primo libro delle Laude spirituale a tre voci---Roma---A.Gardano---1583. Editor : André Vierendeels (19/11/17). Notes : Original clefs : G2, C1, C3 Editorial accidentals above the staff
T:Perder gl'amici
T:©
T:©
C:Giovanni Animucccia (?)
Z:©
%%score [ 1 2 3 ]
L:1/8
Q:1/4=120
M:4/4
K:F
V:1 treble nm="Soprano 1" snm="S 1"
V:2 treble nm="Soprano 2" snm="S 2"
V:3 treble-8 nm="Tenor" snm="T"
V:1
 z4 B4 | A2 G2 A4 | B2 c4 c2 | c2 c2 B4 |[M:2/4] A4 ::[M:4/4]"^1)""^4)" d2 dc d2 e2 | d2 d2 c2 B2 | %7
w: Per-|der gli'a- mi-|ci'è per- der|il fa- vo-|ri,|s'es- ti- ma'in que- sta|vi- ta per gran|
w: Si|sen- te mol-|to per- der|le- rich- es-|se,|l'ho- nor la fa- ma|dall' huo- mo car-|
 c4 B4 | z2 A2 B2 B2 | A4 z2 A2 | B2 B2 A2 d2 | c3 B A2 G2 | A4 !fermata!G4 :| %13
w: ma- le,|ma l'al- ma|no, ma|l'al- ma no che|piu ch'el mon- do|va- le.|
w: na- le,|ma l'al- ma|no, ma|l'al- ma no che|piu ch'el mon- do|va- le.|
V:2
"^2)" z4 G4 |"^1)" F2 G2 F4 | G2 A4 A2 | A2 A2 G4 |[M:2/4]"^#" F4 ::[M:4/4] B2 BA B2 c2 | %6
w: Per-|der gli'a- mi-|ci'è per- der|il fa- vo-|ri,|s'es- ti- ma que- sta|
w: Pian-|ge- si tan-|to'in- con- so-|la- bil- men-|te,|per- der la vi- ta|
 B3 B A2 B2- | B2 A2 B4 | z2 F2 G2 G2 | F4 z2 F2 | G2 G2 F2 B2 | A3 G F2 G2- | %12
w: vi- ta per gran|_ ma- le,|ma l'al- ma|no, ma|l'al- ma no che|piu ch'el mon- do|
w: mi- se- ra'e mor-|* ta- le,|ma l'al- ma|no, ma|l'al- ma no che|piu ch'el mon- do|
"^#" G2 F2 !fermata!G4 :| %13
w: _ va- le.|
w: _ va- le.|
V:3
"^3)" z4 G4 |"^1)" d2 _e2 d4 | g2 f4 f2 | f2 f2 g4 |[M:2/4] d4 ::[M:4/4] B2 Bf B2 c2 | B3 B f2 g2 | %7
w: Per-|der gli'a- mi-|ci'è per- der|il fa- vo-|ri,|s'es ti- ma que- sta|vi- ta per gran|
w: Ma|non si fer-|ma qui no-|stra paz- zi-|a,|che piu si do- le|d'un di- let- to|
 f4 B4 | z2 d2 G2 G2 | d4 z2 d2 | G2 G2 d2 B2 | f2 c2 d2 _e2 | d4 !fermata!G4 :| %13
w: ma- le,|ma l'al- ma|no, ma|l'al- ma no che|piu ch'el mon- do|va- le.|
w: ri- o,|se tol- to|gli'è, se|tol- to gli'è, che|per- der l'al- ma'et|Di- o.|

